X:1
T:Guimarães, LM
T:Guimarães, LM
T:Benjamin Russell Hanby, 1866
T:Public Domain Courtesy of the Cyber Hymnal™
C:Benjamin Russell Hanby, 1866
Z:Public Domain
Z:Courtesy of the Cyber Hymnal™
%%score 1 2
L:1/8
Q:1/4=108
M:4/4
K:C
V:1 treble 
V:2 bass 
V:1
 ([CE][DF]) | [EG]2 [FA]2 [EG]2 ([CE][DF]) | [EG]2 [Ec]2 [EG]2 [EG]2 | [FA]2 [Ac]2 [GB]2 [FA]2 | %4
 [FA]2 [EG]2 [EG]2 ([CE][DF]) | [EG]2 [FA]2 [EG]2 ([CE][DF]) | [EG]2 [Ec]2 [EG]2 [EG]2 | %7
 [FA]2 [FB]2 [Gc]2 [Ad]2 | [Ge]4 [Fd]4 | [Ec]6 |] %10
V:2
 [C,G,]2 | [C,C]2 [C,C]2 [C,C]2 [C,G,]2 | [C,C]2 [C,G,]2 [C,C]2 [C,C]2 | %3
 [F,C]2 [F,C]2 [F,C]2 [F,C]2 | [C,C]2 [C,C]2 [C,C]2 [C,G,]2 | [C,C]2 [C,C]2 [C,C]2 [C,G,]2 | %6
 [C,C]2 [C,G,]2 [C,C]2 [C,C]2 | [F,C]2 [D,D]2 [E,C]2 [F,C]2 | [G,C]4 [G,,B,]4 | [C,C]6 |] %10

